src/baseIcons/icon-transport-walk.svg

<?xml version="1.0" encoding="UTF-8"?>
<svg  viewBox="0 0 38 38" version="1.1" xmlns="http://www.w3.org/2000/svg" xmlns:xlink="http://www.w3.org/1999/xlink">
    <title>Icons/Basic icons/transport-walk</title>
    <g  id="Icons/Basic-icons/transport-walk" stroke="none" stroke-width="1" fill="none" fill-rule="evenodd">
        <path d="M19,0 C29.493,0 38,8.507 38,19 C38,29.493 29.493,38 19,38 C8.507,38 0,29.493 0,19 C0,8.507 8.507,0 19,0 Z M19,2 C9.626,2 2,9.626 2,19 C2,28.374 9.626,36 19,36 C28.374,36 36,28.374 36,19 C36,9.626 28.374,2 19,2 Z M19.4159,11.5148 L19.4884,11.5183 L19.5034,11.5183 C19.5614,11.5183 19.6204,11.5093 19.6764,11.5193 L19.6764,11.5193 L19.7284,11.5313 C19.7384,11.5343 19.7484,11.5313 19.7574,11.5333 C19.7994,11.5453 19.8314,11.5733 19.8704,11.5893 C19.9234,11.6113 19.9804,11.6253 20.0304,11.6563 C20.0474,11.6673 20.0624,11.6813 20.0804,11.6933 C20.1264,11.7263 20.1604,11.7683 20.1994,11.8083 C20.2384,11.8473 20.2804,11.8803 20.3114,11.9253 C20.3174,11.9333 20.3264,11.9373 20.3324,11.9453 L20.3324,11.9453 L22.1414,14.6593 L24.8164,15.5513 C25.3394,15.7263 25.6234,16.2923 25.4484,16.8163 C25.3084,17.2353 24.9194,17.5003 24.5004,17.5003 C24.3954,17.5003 24.2894,17.4843 24.1834,17.4483 L24.1834,17.4483 L21.1834,16.4483 C20.9724,16.3783 20.7914,16.2393 20.6684,16.0543 L20.6684,16.0543 L19.8954,14.8963 L18.9524,18.4333 L21.5544,20.1683 C21.8104,20.3383 21.9734,20.6163 21.9974,20.9233 L21.9974,20.9233 L22.4974,27.4233 C22.5394,27.9743 22.1274,28.4543 21.5774,28.4973 C21.5504,28.4993 21.5244,28.5003 21.4994,28.5003 C20.9814,28.5003 20.5434,28.1013 20.5034,27.5763 L20.5034,27.5763 L20.0404,21.5623 L18.4084,20.4743 L16.4654,27.7583 C16.3464,28.2053 15.9424,28.5003 15.5014,28.5003 C15.4154,28.5003 15.3294,28.4893 15.2424,28.4663 C14.7094,28.3233 14.3914,27.7763 14.5344,27.2423 L14.5344,27.2423 L18.0964,13.8813 L16.3244,14.3243 L15.4694,17.7423 C15.3564,18.1973 14.9494,18.5003 14.5014,18.5003 C14.4204,18.5003 14.3384,18.4903 14.2574,18.4703 C13.7214,18.3363 13.3954,17.7933 13.5304,17.2573 L13.5304,17.2573 L14.5304,13.2573 C14.6194,12.8993 14.8994,12.6193 15.2574,12.5303 L15.2574,12.5303 L19.2574,11.5303 C19.2674,11.5273 19.2764,11.5303 19.2854,11.5283 C19.3044,11.5243 19.3244,11.5203 19.3434,11.5173 C19.3914,11.5093 19.4404,11.5183 19.4884,11.5183 Z M20.5,7.5 C21.603,7.5 22.5,8.397 22.5,9.5 C22.5,10.603 21.603,11.5 20.5,11.5 C19.397,11.5 18.5,10.603 18.5,9.5 C18.5,8.397 19.397,7.5 20.5,7.5 Z"  id="Combined-Shape" fill="#292929"></path>
    </g>
</svg>

<svg xmlns="http://www.w3.org/2000/svg" xmlns:xlink="http://www.w3.org/1999/xlink" viewBox="0 0 38 38"><defs><path id="a" d="M19 0c10.493 0 19 8.507 19 19s-8.507 19-19 19S0 29.493 0 19 8.507 0 19 0zm0 2C9.626 2 2 9.626 2 19c0 9.374 7.626 17 17 17 9.374 0 17-7.626 17-17 0-9.374-7.626-17-17-17zm.4159 9.5148l.0725.0035h.015c.058 0 .117-.009.173.001l.052.012c.01.003.02 0 .029.002.042.012.074.04.113.056.053.022.11.036.16.067.017.011.032.025.05.037.046.033.08.075.119.115.039.039.081.072.112.117.006.008.015.012.021.02l1.809 2.714 2.675.892c.523.175.807.741.632 1.265-.14.419-.529.684-.948.684-.105 0-.211-.016-.317-.052l-3-1c-.211-.07-.392-.209-.515-.394l-.773-1.158-.943 3.537 2.602 1.735c.256.17.419.448.443.755l.5 6.5c.042.551-.37 1.031-.92 1.074-.027.002-.053.003-.078.003-.518 0-.956-.399-.996-.924l-.463-6.014-1.632-1.088-1.943 7.284c-.119.447-.523.742-.964.742-.086 0-.172-.011-.259-.034-.533-.143-.851-.69-.708-1.224l3.562-13.361-1.772.443-.855 3.418c-.113.455-.52.758-.968.758-.081 0-.163-.01-.244-.03-.536-.134-.862-.677-.727-1.213l1-4c.089-.358.369-.638.727-.727l4-1c.01-.003.019 0 .028-.002.019-.004.039-.008.058-.011.048-.008.097.001.145.001zM20.5 7.5c1.103 0 2 .897 2 2s-.897 2-2 2-2-.897-2-2 .897-2 2-2z"/></defs><g fill="none" fill-rule="evenodd"><mask id="b" fill="#fff"><use xlink:href="#a"/></mask><use fill="#292929" xlink:href="#a"/><g fill="#5F686D" mask="url(#b)"><path d="M0 0h38v38H0z"/></g></g></svg>
